!!!COM: Palestrina, Giovanni Perluigi da
!!!OPR: Missa Illumina oculos meos
!!!OMD: Credo
!!!OTL: Crucifixus
**kern	**kern	**kern	**kern
*Ibass	*Itenor	*Icalto	*Icalto
!Bassus	!Tenor	!Altus 2	!Altus 1
*clefF4	*clefGv2	*clefG2	*clefG2
*k[]	*k[]	*k[]	*k[]
*E:phr	*E:phr	*E:phr	*E:phr
*M4/2	*M4/2	*M4/2	*M4/2
=89	=89	=89	=89
0r	0r	0r	1.e
.	.	.	2e
=90	=90	=90	=90
1r	0r	0r	1f
[1E	.	.	1e
=91	=91	=91	=91
2E]	0r	0r	2.g
2E	.	.	.
.	.	.	4g
1F	.	.	1c
=92	=92	=92	=92
1E	1.B	0r	1e
2.G	.	.	1d
.	2B	.	.
4G	.	.	.
=93	=93	=93	=93
1C	1c	1.e	1g
1E	1B	.	2r
.	.	2e	2G
=94	=94	=94	=94
1D	2.d	1f	4A
.	.	.	4G
.	.	.	4A
.	4d	.	4B
1C	1G	1e	4c
.	.	.	4d
.	.	.	4e
.	.	.	4c
=95	=95	=95	=95
1GG	1B	2.g	2.d
.	.	4g	8c
.	.	.	8d
1r	1A	1c	2e
.	.	.	4d
.	.	.	4c
=96	=96	=96	=96
1r	1.G	1e	2B
.	.	.	2.c
2r	.	2d	.
.	.	.	4B
2GG	2d	[2g	2B
=97	=97	=97	=97
2C	2e	2g]	1A
2D	2d	2f#	.
2E	2B	1g	1G
2C	2c	.	.
=98	=98	=98	=98
0F	0A	0r	2r
.	.	.	2A
.	.	.	2c
.	.	.	2d
=99	=99	=99	=99
1E	1B	2r	1.e
.	.	2G	.
1r	1r	2c	.
.	.	2d	2B
=100	=100	=100	=100
1r	0r	2e	4c
.	.	.	4d
.	.	2c	4e
.	.	.	4c
2r	.	2f	2d
2C	.	2e	[2c
=101	=101	=101	=101
2F	1r	1d	2c]
2G	.	.	2B
[1A	2r	2r	2c
.	2A	2c	[2e
=102	=102	=102	=102
2A]	2c	2A	2e]
2G	2d	2B	2.g
4C	2.e	2c	.
4D	.	.	4f
4E	.	[2g	2e
4F	8d	.	.
.	8c	.	.
=103	=103	=103	=103
2G	2B	4g]	2d
.	.	4f	.
2A	2c	1e	1c
1F	1A	.	.
.	.	2d	4B
.	.	.	4A
=104	=104	=104	=104
1E	1G#	1e	1B
1AA	[1A	[1c	[1e
=105	=105	=105	=105
0E	1A]	1c]	1e]
.	1G	1B	1e
=106	=106	=106	=106
1D	1A	1d	1f#
1GG	1B	1d	1g
=107	=107	=107	=107
1C	2.c	1G	0e
.	4B	.	.
1C	2A	2.c	.
.	2G	.	.
.	.	4B	.
=108	=108	=108	=108
0D	2F#	2A	0d
.	1G	2G	.
.	.	1A	.
.	2F#	.	.
*-	*-	*-	*-
!!!CDT: 1525/^1526/-1594/2/2
!!!OCY: Italia
!!!AGN: Mass (Parody)
!!!AST: renaissance, vocal
!!!ASW: Motet (Silva)
!!!PWK: Masses, Book 10
!!!RNB: Cadence finals: G,C,A
!!!YOR: Le Opere Complete, v. 27, p. 155
!!!YOO: Rome, Italy: Fratelli Scalera
!!!END: 1992//
!!!EED: John Miller
!!!YEC: Copyright 2000, John Miller
!!!YEN: United States of America
!!!YEM: Rights to all derivative electronic formats reserved.
!!!YEM: Refer to licensing agreement for further details.
!!!YEM: This file must be accompanied by the licensing agreement.
!!!YEM: A copy of the licensing agreement may be found at http://www.music-cog.ohio-state.edu/HumdrumDatabases/Palestrina/license.txt
!!!EMD: converted to Humdrum by Bret Aarden
